src/assets/images/facebook.svg

<svg height="28" viewBox="0 0 28 28" width="28" xmlns="http://www.w3.org/2000/svg"><path d="m15.5 23.9166667.0654538-9.0469441h2.6571322c.2509494 0 .4630228-.1860167.495734-.434825l.3320653-2.5257546c.0359951-.2737864-.1567727-.5249139-.430559-.560909-.0216088-.002841-.0433803-.004266-.065175-.004266h-2.9891975v-2.25097199c0-1.02078729.2889717-1.71641988 1.7812355-1.71641988l1.4033107-.00060179c.2760586-.00033284.4997855-.22415577.5-.50021441v-2.19563587c.0000813-.26045335-.1998275-.47729839-.459422-.49843229-.8054455-.06557229-1.5767912-.09835844-2.3140373-.09835844-2.744165 0-4.6228945 1.64308599-4.6228945 4.66048678v2.60014789h-2.6036462c-.27614237 0-.5.2238576-.5.5v2.5257546c0 .2761424.22385763.5.5.5h2.6036462v8.5469441c0 .2761423.2238576.5.5.5" fill="#9f9f9f"/></svg>

<?xml version="1.0" encoding="UTF-8"?>
<svg width="28px" height="28px" viewBox="0 0 28 28" version="1.1" xmlns="http://www.w3.org/2000/svg" xmlns:xlink="http://www.w3.org/1999/xlink">
    <title>Group 2</title>
    <g id="Design" stroke="none" stroke-width="1" fill="none" fill-rule="evenodd">
        <g id="ГЛАВНАЯ" transform="translate(-1095.000000, -6507.000000)" fill="#9F9F9F" fill-rule="nonzero">
            <g id="Group-54" transform="translate(0.000000, 6379.000000)">
                <g id="Group-2" transform="translate(1095.000000, 128.000000)">
                    <path d="M15.5,23.9166667 L15.5654538,14.8697226 L18.222586,14.8697226 C18.4735354,14.8697226 18.6856088,14.6837059 18.71832,14.4348976 L19.0503853,11.909143 C19.0863804,11.6353566 18.8936126,11.3842291 18.6198263,11.348234 C18.5982175,11.345393 18.576446,11.343968 18.5546513,11.343968 L15.5654538,11.343968 L15.5654538,11.343968 L15.5654538,9.09299601 C15.5654538,8.07220872 15.8544255,7.37657613 17.3466893,7.37657613 L18.75,7.37597434 C19.0260586,7.3756415 19.2497855,7.15181857 19.25,6.87575993 L19.25,4.68012406 C19.2500813,4.41967071 19.0501725,4.20282567 18.790578,4.18169177 C17.9851325,4.11611948 17.2137868,4.08333333 16.4765407,4.08333333 C13.7323757,4.08333333 11.8536462,5.72641932 11.8536462,8.74382011 L11.8536462,11.343968 L9.25,11.343968 C8.97385763,11.343968 8.75,11.5678256 8.75,11.843968 L8.75,14.3697226 C8.75,14.645865 8.97385763,14.8697226 9.25,14.8697226 L11.8536462,14.8697226 L11.8536462,14.8697226 L11.8536462,23.4166667 C11.8536462,23.692809 12.0775038,23.9166667 12.3536462,23.9166667" id="Path"></path>
                </g>
            </g>
        </g>
    </g>
</svg>
